public/logo.svg

<svg width="204" height="40" viewBox="0 0 204 40" fill="none" xmlns="http://www.w3.org/2000/svg">
<path d="M33.952 0H0V33.9568H33.952V0Z" fill="#1E2427"/>
<path d="M27.7659 33.9856C24.7351 33.9856 22.4333 33.1798 20.8604 31.5683C19.2874 29.9375 18.501 27.434 18.501 24.0575C18.501 20.777 19.2683 18.3021 20.8028 16.6331C22.3374 14.9448 24.6584 14.1007 27.7659 14.1007C28.7824 14.1007 29.7992 14.2254 30.8158 14.4748C31.8516 14.7242 32.8492 15.0695 33.8082 15.5108V18.964C32.8299 18.3501 31.8804 17.9089 30.9596 17.6403C30.0389 17.3717 29.147 17.2374 28.2838 17.2374C27.0178 17.2374 25.9532 17.4676 25.09 17.928C24.246 18.3693 23.6034 19.0887 23.1622 20.0863C22.7402 21.0839 22.5292 22.4173 22.5292 24.0863C22.5292 25.7362 22.7498 27.0599 23.191 28.0575C23.6321 29.0552 24.2843 29.7747 25.1475 30.2158C26.0299 30.657 27.1233 30.8777 28.4276 30.8777C29.214 30.8777 30.0582 30.7433 30.9596 30.4748C31.8804 30.2063 32.8299 29.7747 33.8082 29.1798V32.6331C33.252 32.9016 32.6285 33.1416 31.9379 33.3525C31.2667 33.5634 30.5761 33.7171 29.8663 33.8129C29.1565 33.928 28.4564 33.9856 27.7659 33.9856Z" fill="white"/>
<path d="M67.6645 0H33.7124V33.9568H67.6645V0Z" fill="#2C898A"/>
<path d="M60.2793 33.9568V14.7626H64.1924V33.9568H60.2793Z" fill="white"/>
<path d="M101.376 0H67.4244V33.9568H101.376V0Z" fill="#65843A"/>
<path d="M84.7362 33.9568V14.7626H88.2465L98.7198 29.0935L97.5977 31.3957V14.7626H101.223V33.9568H98.0581L87.3258 19.5683L88.3904 17.8129V33.9568H84.7362Z" fill="white"/>
<path d="M135.089 0H101.137V33.9568H135.089V0Z" fill="#CDAD3B"/>
<path d="M122.141 33.9568V14.7626H135.002V17.8993H126.054V22.7626H133.823V25.928H126.054V30.8201H135.002V33.9568H122.141Z" fill="white"/>
<path d="M168.801 0H134.849V33.9568H168.801V0Z" fill="#C05423"/>
<path d="M149.188 33.9568V14.7626H153.216L159.949 24.4316L157.733 24.6043L164.783 14.7626H168.696V33.9568H164.811V17.8705L165.703 18.9065L158.769 28.3165L152.036 18.8777L152.957 18.0719V33.9568H149.188Z" fill="white"/>
<path d="M202.513 0H168.561V33.9568H202.513V0Z" fill="#C7C5B0"/>
<path d="M193.21 33.7266C191.311 33.7266 189.681 33.3717 188.319 32.6618C186.957 31.9329 185.911 30.8394 185.182 29.3812C184.454 27.904 184.089 26.0431 184.089 23.7985C184.089 20.5179 184.875 18.0431 186.448 16.374C188.04 14.6858 190.295 13.8417 193.21 13.8417C195.128 13.8417 196.768 14.2062 198.13 14.9352C199.492 15.6642 200.538 16.7577 201.267 18.2158C202.015 19.6738 202.389 21.5347 202.389 23.7985C202.389 27.0599 201.593 29.5346 200.001 31.223C198.428 32.892 196.164 33.7266 193.21 33.7266ZM193.21 30.4748C194.361 30.4748 195.311 30.254 196.059 29.8129C196.826 29.3525 197.401 28.633 197.785 27.6546C198.169 26.6762 198.36 25.3812 198.36 23.7697C198.36 22.1582 198.169 20.8728 197.785 19.9136C197.401 18.9352 196.826 18.2254 196.059 17.7841C195.311 17.3429 194.361 17.1223 193.21 17.1223C192.097 17.1223 191.158 17.3525 190.39 17.8129C189.642 18.2541 189.076 18.964 188.693 19.9424C188.309 20.9016 188.117 22.187 188.117 23.7985C188.117 25.41 188.309 26.705 188.693 27.6834C189.076 28.6618 189.642 29.3717 190.39 29.8129C191.158 30.254 192.097 30.4748 193.21 30.4748Z" fill="white"/>
</svg>

<svg xmlns="http://www.w3.org/2000/svg" width="204" height="40" fill="none"><path fill="#1E2427" d="M33.952 0H0v33.957h33.952V0Z"/><path fill="#fff" d="M27.766 33.986c-3.03 0-5.333-.806-6.906-2.418-1.573-1.63-2.359-4.134-2.359-7.51 0-3.281.767-5.756 2.302-7.425 1.534-1.688 3.855-2.532 6.963-2.532 1.016 0 2.033.124 3.05.374 1.036.25 2.033.595 2.992 1.036v3.453c-.978-.614-1.928-1.055-2.848-1.324a9.537 9.537 0 0 0-2.676-.403c-1.266 0-2.33.23-3.194.691-.844.441-1.487 1.16-1.928 2.158-.422.998-.633 2.331-.633 4 0 1.65.22 2.974.662 3.972.441.997 1.093 1.717 1.957 2.158.882.441 1.975.662 3.28.662.786 0 1.63-.135 2.532-.403.92-.269 1.87-.7 2.848-1.295v3.453a13.12 13.12 0 0 1-1.87.72c-.671.21-1.362.364-2.072.46-.71.115-1.41.173-2.1.173Z"/><path fill="#2C898A" d="M67.665 0H33.712v33.957h33.953V0Z"/><path fill="#fff" d="M60.28 33.957V14.763h3.912v19.194H60.28Z"/><path fill="#65843A" d="M101.376 0H67.424v33.957h33.952V0Z"/><path fill="#fff" d="M84.736 33.957V14.763h3.51l10.474 14.33-1.122 2.303V14.763h3.625v19.194h-3.165L87.326 19.568l1.064-1.755v16.144h-3.654Z"/><path fill="#CDAD3B" d="M135.089 0h-33.952v33.957h33.952V0Z"/><path fill="#fff" d="M122.141 33.957V14.763h12.861v3.136h-8.948v4.864h7.769v3.165h-7.769v4.892h8.948v3.137h-12.861Z"/><path fill="#C05423" d="M168.801 0h-33.952v33.957h33.952V0Z"/><path fill="#fff" d="M149.188 33.957V14.763h4.028l6.733 9.669-2.216.172 7.05-9.841h3.913v19.194h-3.885V17.87l.892 1.037-6.934 9.41-6.733-9.44.921-.805v15.885h-3.769Z"/><path fill="#C7C5B0" d="M202.513 0h-33.952v33.957h33.952V0Z"/><path fill="#fff" d="M193.21 33.727c-1.899 0-3.529-.355-4.891-1.065-1.362-.73-2.408-1.823-3.137-3.28-.728-1.478-1.093-3.339-1.093-5.584 0-3.28.786-5.755 2.359-7.424 1.592-1.688 3.847-2.532 6.762-2.532 1.918 0 3.558.364 4.92 1.093 1.362.73 2.408 1.823 3.137 3.28.748 1.459 1.122 3.32 1.122 5.584 0 3.26-.796 5.736-2.388 7.424-1.573 1.669-3.837 2.504-6.791 2.504Zm0-3.252c1.151 0 2.101-.221 2.849-.662.767-.46 1.342-1.18 1.726-2.158.384-.979.575-2.274.575-3.885 0-1.612-.191-2.897-.575-3.856-.384-.979-.959-1.689-1.726-2.13-.748-.441-1.698-.662-2.849-.662-1.113 0-2.052.23-2.82.69-.748.442-1.314 1.152-1.697 2.13-.384.96-.576 2.245-.576 3.857 0 1.611.192 2.906.576 3.884.383.979.949 1.689 1.697 2.13.768.441 1.707.662 2.82.662Z"/></svg>
